public/icons/sun.svg

<svg xmlns="http://www.w3.org/2000/svg" viewBox="0 0 64 64" fill="none" stroke="#fff" stroke-width="3"><circle cx="32" cy="32" r="16.3"/><path d="M31.8 59.3l-.1-10.6m-13.6 7l5.3-9.2m-15.3-.8l9.2-5.3M4.5 32H15M8.1 18.4l9.2 5.3m.8-15.3l5.3 9.2m8.3-12.9l.1 10.6m13.6-6.9l-5.3 9.2m15.3.8l-9.2 5.3M59 32H48.5m6.9 13.7l-9.2-5.3m-.8 15.3l-5.3-9.2" stroke-linecap="round" stroke-miterlimit="10"/></svg>

<svg xmlns="http://www.w3.org/2000/svg" viewBox="0 0 64 64" style="enable-background:new 0 0 64 64" xml:space="preserve"><style>.st2{fill:none;stroke:#000;stroke-width:3;stroke-linecap:round;stroke-miterlimit:10}</style><g id="Layer_1"><circle class="st2" cx="32" cy="32" r="16.3"/><path class="st2" d="m31.8 59.3-.1-10.6M18.1 55.7l5.3-9.2M8.1 45.7l9.2-5.3M4.5 32H15M8.1 18.4l9.2 5.3M18.1 8.4l5.3 9.2M31.7 4.7l.1 10.6M45.4 8.4l-5.3 9.2M55.4 18.4l-9.2 5.3M59 32H48.5M55.4 45.7l-9.2-5.3M45.4 55.7l-5.3-9.2"/></g></svg>
